src/icons/ubuntu.svg

<?xml version="1.0" encoding="UTF-8"?>
<svg xmlns="http://www.w3.org/2000/svg" xmlns:xlink="http://www.w3.org/1999/xlink" width="32" height="32" viewBox="0 0 32 32" version="1.1">
<g id="surface1">
<path style=" stroke:none;fill-rule:nonzero;fill:rgb(86.666667%,28.235295%,7.843138%);fill-opacity:1;" d="M 32 16 C 32 24.835938 24.835938 32 16 32 C 7.164062 32 0 24.835938 0 16 C 0 7.164062 7.164062 0 16 0 C 24.835938 0 32 7.164062 32 16 Z M 32 16 "/>
<path style=" stroke:none;fill-rule:nonzero;fill:rgb(100%,100%,100%);fill-opacity:1;" d="M 5.121094 13.863281 C 3.941406 13.863281 2.984375 14.820312 2.984375 16 C 2.984375 17.183594 3.9375 18.136719 5.121094 18.136719 C 6.300781 18.136719 7.257812 17.179688 7.257812 16 C 7.257812 14.820312 6.300781 13.863281 5.121094 13.863281 Z M 20.371094 23.5625 C 19.351562 24.164062 19 25.460938 19.589844 26.480469 C 20.179688 27.503906 21.484375 27.851562 22.507812 27.261719 C 23.527344 26.671875 23.878906 25.367188 23.289062 24.347656 C 22.699219 23.324219 21.394531 22.976562 20.371094 23.5625 Z M 9.761719 16 C 9.757812 13.96875 10.75 12.0625 12.414062 10.894531 L 10.851562 8.28125 C 8.957031 9.546875 7.589844 11.464844 7.015625 13.675781 C 7.699219 14.222656 8.121094 15.058594 8.121094 16 C 8.121094 16.941406 7.6875 17.777344 7.015625 18.324219 C 7.585938 20.535156 8.953125 22.457031 10.851562 23.722656 L 12.414062 21.105469 C 10.75 19.9375 9.757812 18.03125 9.761719 16 Z M 16 9.761719 C 19.230469 9.761719 21.929688 12.226562 22.214844 15.445312 L 25.257812 15.402344 C 25.113281 13.125 24.132812 10.980469 22.503906 9.382812 C 21.660156 9.703125 20.71875 9.628906 19.9375 9.179688 C 19.15625 8.726562 18.621094 7.949219 18.480469 7.058594 C 17.671875 6.832031 16.839844 6.71875 16 6.71875 C 14.574219 6.71875 13.164062 7.046875 11.886719 7.679688 L 13.371094 10.339844 C 14.171875 9.96875 15.070312 9.761719 16 9.761719 Z M 16 22.238281 C 15.09375 22.242188 14.195312 22.042969 13.371094 21.660156 L 11.886719 24.320312 C 13.128906 24.933594 14.523438 25.28125 16 25.28125 C 16.839844 25.28125 17.671875 25.167969 18.480469 24.941406 C 18.625 24.050781 19.160156 23.273438 19.941406 22.824219 C 20.738281 22.355469 21.691406 22.308594 22.5 22.617188 C 24.128906 21.019531 25.113281 18.875 25.257812 16.597656 L 22.210938 16.554688 C 21.925781 19.769531 19.230469 22.238281 16 22.238281 Z M 20.371094 8.425781 C 21.394531 9.027344 22.699219 8.667969 23.289062 7.648438 C 23.878906 6.628906 23.527344 5.320312 22.507812 4.730469 C 21.488281 4.128906 20.179688 4.488281 19.589844 5.511719 C 19 6.535156 19.351562 7.839844 20.371094 8.429688 Z M 20.371094 8.425781 "/>
</g>
</svg>

<svg role="img" viewBox="0 0 32 32" xmlns="http://www.w3.org/2000/svg"><path d="M32 16c0 8.836-7.164 16-16 16S0 24.836 0 16 7.164 0 16 0s16 7.164 16 16m0 0" style="stroke:none;fill-rule:nonzero;fill:rgb(86.666667%,28.235295%,7.843138%);fill-opacity:1"/><path d="M5.121 13.863a2.137 2.137 0 1 0 .001 4.275 2.137 2.137 0 0 0 0-4.275m15.25 9.7a2.141 2.141 0 0 0-.781 2.917 2.134 2.134 0 0 0 2.918.782 2.134 2.134 0 0 0 .781-2.914 2.139 2.139 0 0 0-2.918-.785M9.761 16a6.227 6.227 0 0 1 2.653-5.105L10.852 8.28a9.299 9.299 0 0 0-3.836 5.395A2.953 2.953 0 0 1 8.12 16a2.99 2.99 0 0 1-1.105 2.324 9.273 9.273 0 0 0 3.836 5.399l1.562-2.618A6.227 6.227 0 0 1 9.762 16M16 9.762c3.23 0 5.93 2.465 6.215 5.683l3.043-.043a9.253 9.253 0 0 0-2.754-6.02 2.99 2.99 0 0 1-4.023-2.324 9.272 9.272 0 0 0-6.594.621l1.484 2.66c.8-.37 1.7-.577 2.629-.577m0 12.476a6.184 6.184 0 0 1-2.629-.578l-1.484 2.66a9.262 9.262 0 0 0 6.593.621c.145-.89.68-1.668 1.461-2.117a2.976 2.976 0 0 1 2.559-.207 9.257 9.257 0 0 0 2.758-6.02l-3.047-.042A6.236 6.236 0 0 1 16 22.238m4.371-13.812a2.126 2.126 0 0 0 2.918-.778 2.138 2.138 0 0 0-.781-2.918 2.125 2.125 0 0 0-2.918.782 2.137 2.137 0 0 0 .781 2.918Zm0 0" style="stroke:none;fill-rule:nonzero;fill:rgb(100%,100%,100%);fill-opacity:1"/></svg>
